X: 21054
M: 2/4
L: 1/16
K: Bb
V: 1 name="4"
de |\
f2fe d2dc | BABc d2Bd | ecdB cABG | AcBG F2de |\
f2fe d2dc | edef g4 | fdec dBcA | B2d2B2 H|]
g6 ^f2 | g3a b4 | B2A2 G2g2 | ^f2g2 d4 |\
g6 ^f2 | g3a b4 | B2A2 G2g2 | G2AB cde"^D.C."g |]


